X:4294
L:1/8
M:4/4
K:C
"^mf" G2 | A2 (GE) C2 G2 | A2 (GE) C2 F2 | E2 G2 c2 d2 | c(c B2) G2 (AB) | c2{c} .d2 c2 A2 | 
 G2 E2 C z D/ (EF) | G2 c2 (cA) GE | (D4 C) C3 z | A4 (FG)(AB) | (c4{G)} G z (AB) | 
 c2{c} .d2 c2 A2 | G2 E2 C z (E2 F2) | G2 c2 (cA) GE | (D4{C)} C3 z | 
 A4 (FG)(AB) (c4{G)} .G z (AB) | c2{c} .d2 c2 A2 | G2 E2 C z/ D/ E2 | G2 c2 (cA) GE | 
 (D4{C)} C3 z"^end of first record" |[M:5/4]"^Bar 4" (c2 B2) G2 z2 (A2 B2) | EF | G2 c2 (cA) GE | 
 (D2 (3DED) C3 z | G2 | A2 (GE) C2 G2 | A2 GE (C2{E)} E2 | E2 !slide!G2 c2 d2 | (c2 B2) G2 AB |]

